Adwaita++/actions/22/document-edit-sign-encrypt.svg

<svg height="22" viewBox="0 0 22 22" width="22" xmlns="http://www.w3.org/2000/svg">
  <path d="m3 1s-1 0-1 1v12c0 1 1 1 1 1h4v-2h-3v-9.9960938h8v4.9863282h2v-5.9902344c0-1-1-1-1-1zm8 7.9902344c-2 0-2 1-2 1v1.9999996h-1v3h6v-3h-1v-1.9999996s0-1-2-1zm0 1c.37268 0 1 .2238596 1 .4999996v1.5h-2v-1.5c0-.27614.62732-.4999996 1-.4999996z" fill="#444" transform="translate(3 3)"/>
</svg>

<svg xmlns="http://www.w3.org/2000/svg" width="22" height="22" viewBox="0 0 22 22">
 <defs>
  <style id="current-color-scheme" type="text/css">
   .ColorScheme-Text { color:#444444; } .ColorScheme-Highlight { color:#4285f4; }
  </style>
 </defs>
 <path style="fill:currentColor" class="ColorScheme-Text" d="M 3 1 C 3 1 2 1 2 2 L 2 14 C 2 15 3 15 3 15 L 7 15 L 7 13 L 4 13 L 4 3.0039062 L 12 3.0039062 L 12 7.9902344 L 14 7.9902344 L 14 2 C 14 1 13 1 13 1 L 3 1 z M 11 8.9902344 C 9 8.9902344 9 9.9902344 9 9.9902344 L 9 11.990234 L 8 11.990234 L 8 14.990234 L 14 14.990234 L 14 11.990234 L 13 11.990234 L 13 9.9902344 C 13 9.9902344 13 8.9902344 11 8.9902344 z M 11 9.9902344 C 11.37268 9.9902344 12 10.214094 12 10.490234 L 12 11.990234 L 10 11.990234 L 10 10.490234 C 10 10.214094 10.62732 9.9902344 11 9.9902344 z" transform="translate(3 3)"/>
</svg>
